X: 2908
T: Barr Na Cuille
R: reel
M: 4/4
K: Dmajor
FA A2 Bddg|f2 df ecdA|DFAF GBdg|fdec deAG|
FA A2 Bddg|f2 df ecdA|DFAF GBdg|fdec dfag||
faaf gbbg|(3fga af gedg|faag b3g|fdec deag|
faaf gbbg|(3fga af gedg|(3fga af b3g|fdec dFAG||

